Icons/com_spotify_mobile_android_ui.svg

<svg viewBox="0 0 48 48" xmlns:xlink="http://www.w3.org/1999/xlink">
 <defs>
  <linearGradient id="0">
   <stop stop-opacity="0"/>
   <stop offset="1"/>
  </linearGradient>
  <linearGradient xlink:href="#0" id="1" gradientUnits="userSpaceOnUse" gradientTransform="translate(4e-7,-48)" y1="47" x2="0" y2="1"/>
  <clipPath id="2">
   <g transform="translate(0,-1004.3622)">
    <rect rx="4" y="1005.36" x="1" height="46" width="46" fill="#1890d0"/>
   </g>
  </clipPath>
  <clipPath id="3">
   <g transform="translate(0,-1004.3622)">
    <rect rx="4" y="1005.36" x="1" height="46" width="46" fill="#1890d0"/>
   </g>
  </clipPath>
 </defs>
 <g>
  <g transform="translate(0,-1004.3622)">
   <path d="m 5,1006.3622 c -2.216,0 -4,1.784 -4,4 l 0,37.25 c 0,2.216 1.784,4 4,4 l 38,0 c 2.216,0 4,-1.784 4,-4 l 0,-37.25 c 0,-2.216 -1.784,-4 -4,-4 l -38,0 z m -4,41.5 0,0.5 c 0,2.216 1.784,4 4,4 l 38,0 c 2.216,0 4,-1.784 4,-4 l 0,-0.5 c 0,2.216 -1.784,4 -4,4 l -38,0 c -2.216,0 -4,-1.784 -4,-4 z" opacity="0.02"/>
   <path d="m 1,1047.6122 0,0.25 c 0,2.216 1.784,4 4,4 l 38,0 c 2.216,0 4,-1.784 4,-4 l 0,-0.25 c 0,2.216 -1.784,4 -4,4 l -38,0 c -2.216,0 -4,-1.784 -4,-4 z" opacity="0.05"/>
   <rect width="46" height="46" x="1" y="1005.61" rx="4" opacity="0.1"/>
  </g>
 </g>
 <g>
  <g transform="translate(0,-1004.3622)">
   <rect rx="4" y="1005.36" x="1" height="46" width="46" fill="#9ac303"/>
  </g>
 </g>
 <g>
  <rect transform="scale(1,-1)" width="46" height="46" x="1" y="-46.998" rx="4" opacity="0.1" fill="url(#1)"/>
 </g>
 <g>
  <g clip-path="url(#2)">
   <g opacity="0.1">
    <g>
     <path d="M 35.570312 22.078125 C 35.320312 22.078125 35.066406 22.011719 34.832031 21.871094 C 30.585938 19.308594 25.722656 17.953125 20.769531 17.953125 C 18.09375 17.953125 15.445312 18.34375 12.898438 19.113281 C 12.121094 19.347656 11.308594 18.894531 11.078125 18.097656 C 10.851562 17.300781 11.292969 16.464844 12.070312 16.230469 C 14.886719 15.375 17.816406 14.945312 20.769531 14.945312 C 26.242188 14.945312 31.617188 16.441406 36.316406 19.277344 C 37.011719 19.699219 37.246094 20.617188 36.835938 21.335938 C 36.5625 21.8125 36.074219 22.078125 35.570312 22.078125 "/>
     <path d="M 33.164062 27.527344 C 32.925781 27.527344 32.683594 27.460938 32.46875 27.320312 C 28.964844 25.074219 24.917969 23.882812 20.769531 23.882812 C 18.464844 23.882812 16.191406 24.246094 14.011719 24.964844 C 13.320312 25.195312 12.578125 24.800781 12.355469 24.089844 C 12.132812 23.378906 12.515625 22.617188 13.207031 22.386719 C 15.648438 21.582031 18.191406 21.175781 20.769531 21.175781 C 25.414062 21.175781 29.941406 22.507812 33.863281 25.027344 C 34.480469 25.421875 34.667969 26.257812 34.28125 26.890625 C 34.03125 27.300781 33.601562 27.527344 33.164062 27.527344 "/>
     <path d="M 30.765625 32.957031 C 30.535156 32.957031 30.300781 32.890625 30.097656 32.746094 C 27.347656 30.785156 24.121094 29.75 20.769531 29.75 C 18.832031 29.75 16.933594 30.09375 15.132812 30.773438 C 14.523438 31 13.851562 30.679688 13.628906 30.054688 C 13.40625 29.429688 13.71875 28.742188 14.328125 28.511719 C 16.386719 27.734375 18.554688 27.34375 20.769531 27.34375 C 24.601562 27.34375 28.289062 28.527344 31.433594 30.765625 C 31.964844 31.144531 32.097656 31.894531 31.726562 32.441406 C 31.5 32.777344 31.136719 32.957031 30.765625 32.957031 "/>
    </g>
   </g>
  </g>
 </g>
 <g>
  <g clip-path="url(#3)">
   <g transform="translate(0,-1)">
    <g>
     <path d="M 35.570312 22.078125 C 35.320312 22.078125 35.066406 22.011719 34.832031 21.871094 C 30.585938 19.308594 25.722656 17.953125 20.769531 17.953125 C 18.09375 17.953125 15.445312 18.34375 12.898438 19.113281 C 12.121094 19.347656 11.308594 18.894531 11.078125 18.097656 C 10.851562 17.300781 11.292969 16.464844 12.070312 16.230469 C 14.886719 15.375 17.816406 14.945312 20.769531 14.945312 C 26.242188 14.945312 31.617188 16.441406 36.316406 19.277344 C 37.011719 19.699219 37.246094 20.617188 36.835938 21.335938 C 36.5625 21.8125 36.074219 22.078125 35.570312 22.078125 " fill="#2d2d2d"/>
     <path d="M 33.164062 27.527344 C 32.925781 27.527344 32.683594 27.460938 32.46875 27.320312 C 28.964844 25.074219 24.917969 23.882812 20.769531 23.882812 C 18.464844 23.882812 16.191406 24.246094 14.011719 24.964844 C 13.320312 25.195312 12.578125 24.800781 12.355469 24.089844 C 12.132812 23.378906 12.515625 22.617188 13.207031 22.386719 C 15.648438 21.582031 18.191406 21.175781 20.769531 21.175781 C 25.414062 21.175781 29.941406 22.507812 33.863281 25.027344 C 34.480469 25.421875 34.667969 26.257812 34.28125 26.890625 C 34.03125 27.300781 33.601562 27.527344 33.164062 27.527344 " fill="#2d2d2d"/>
     <path d="M 30.765625 32.957031 C 30.535156 32.957031 30.300781 32.890625 30.097656 32.746094 C 27.347656 30.785156 24.121094 29.75 20.769531 29.75 C 18.832031 29.75 16.933594 30.09375 15.132812 30.773438 C 14.523438 31 13.851562 30.679688 13.628906 30.054688 C 13.40625 29.429688 13.71875 28.742188 14.328125 28.511719 C 16.386719 27.734375 18.554688 27.34375 20.769531 27.34375 C 24.601562 27.34375 28.289062 28.527344 31.433594 30.765625 C 31.964844 31.144531 32.097656 31.894531 31.726562 32.441406 C 31.5 32.777344 31.136719 32.957031 30.765625 32.957031 " fill="#2d2d2d"/>
    </g>
   </g>
  </g>
 </g>
 <g>
  <g transform="translate(0,-1004.3622)">
   <path d="m 1,1043.3622 0,4 c 0,2.216 1.784,4 4,4 l 38,0 c 2.216,0 4,-1.784 4,-4 l 0,-4 c 0,2.216 -1.784,4 -4,4 l -38,0 c -2.216,0 -4,-1.784 -4,-4 z" opacity="0.1"/>
  </g>
 </g>
</svg>

<svg viewBox="0 0 48 48"><defs><linearGradient id="linearGradient3764" x1="1" x2="47" gradientUnits="userSpaceOnUse" gradientTransform="translate(-48.000001,0.00221467)"><stop stop-color="#89af03" stop-opacity="1"/><stop offset="1" stop-color="#9ac303" stop-opacity="1"/></linearGradient><clipPath id="clipPath-077957942"><g transform="translate(0,-1004.3622)"><rect rx="4" y="1005.36" x="1" height="46" width="46" fill="#1890d0"/></g></clipPath><clipPath id="clipPath-099666835"><g transform="translate(0,-1004.3622)"><rect rx="4" y="1005.36" x="1" height="46" width="46" fill="#1890d0"/></g></clipPath></defs><g><path d="m 1 43 l 0 0.25 c 0 2.216 1.784 4 4 4 l 38 0 c 2.216 0 4 -1.784 4 -4 l 0 -0.25 c 0 2.216 -1.784 4 -4 4 l -38 0 c -2.216 0 -4 -1.784 -4 -4 z m 0 0.5 l 0 0.5 c 0 2.216 1.784 4 4 4 l 38 0 c 2.216 0 4 -1.784 4 -4 l 0 -0.5 c 0 2.216 -1.784 4 -4 4 l -38 0 c -2.216 0 -4 -1.784 -4 -4 z" opacity="0.02"/><path d="m 1 43.25 l 0 0.25 c 0 2.216 1.784 4 4 4 l 38 0 c 2.216 0 4 -1.784 4 -4 l 0 -0.25 c 0 2.216 -1.784 4 -4 4 l -38 0 c -2.216 0 -4 -1.784 -4 -4 z" opacity="0.05"/><path d="m 1 43 l 0 0.25 c 0 2.216 1.784 4 4 4 l 38 0 c 2.216 0 4 -1.784 4 -4 l 0 -0.25 c 0 2.216 -1.784 4 -4 4 l -38 0 c -2.216 0 -4 -1.784 -4 -4 z" opacity="0.1"/></g><g><rect width="46" height="46" x="-47" y="1" rx="4" transform="matrix(0,-1,1,0,0,0)" fill="url(#linearGradient3764)" fill-opacity="1"/></g><g><g clip-path="url(#clipPath-077957942)"><g opacity="0.1"><!-- color: #9ac303 --><g><path d="m 35.57 22.08 c -0.25 0 -0.504 -0.066 -0.738 -0.207 c -4.246 -2.563 -9.109 -3.918 -14.06 -3.918 c -2.676 0 -5.324 0.391 -7.871 1.16 c -0.777 0.234 -1.59 -0.219 -1.82 -1.016 c -0.227 -0.797 0.215 -1.633 0.992 -1.867 c 2.816 -0.855 5.746 -1.285 8.699 -1.285 c 5.473 0 10.848 1.496 15.547 4.332 c 0.695 0.422 0.93 1.34 0.52 2.059 c -0.273 0.477 -0.762 0.742 -1.266 0.742" fill="#000"/><path d="m 33.16 27.527 c -0.238 0 -0.48 -0.066 -0.695 -0.207 c -3.504 -2.246 -7.551 -3.438 -11.699 -3.438 c -2.305 0 -4.578 0.363 -6.758 1.082 c -0.691 0.23 -1.434 -0.164 -1.656 -0.875 c -0.223 -0.711 0.16 -1.473 0.852 -1.703 c 2.441 -0.805 4.984 -1.211 7.563 -1.211 c 4.645 0 9.172 1.332 13.09 3.852 c 0.617 0.395 0.805 1.23 0.418 1.863 c -0.25 0.41 -0.68 0.637 -1.117 0.637" fill="#000"/><path d="m 30.766 32.957 c -0.23 0 -0.465 -0.066 -0.668 -0.211 c -2.75 -1.961 -5.977 -2.996 -9.328 -2.996 c -1.938 0 -3.836 0.344 -5.637 1.023 c -0.609 0.227 -1.281 -0.094 -1.504 -0.719 c -0.223 -0.625 0.09 -1.313 0.699 -1.543 c 2.059 -0.777 4.227 -1.168 6.441 -1.168 c 3.832 0 7.52 1.184 10.664 3.422 c 0.531 0.379 0.664 1.129 0.293 1.676 c -0.227 0.336 -0.59 0.516 -0.961 0.516" fill="#000"/></g></g></g></g><g><g clip-path="url(#clipPath-099666835)"><g transform="translate(0,-1)"><!-- color: #9ac303 --><g><path d="m 35.57 22.08 c -0.25 0 -0.504 -0.066 -0.738 -0.207 c -4.246 -2.563 -9.109 -3.918 -14.06 -3.918 c -2.676 0 -5.324 0.391 -7.871 1.16 c -0.777 0.234 -1.59 -0.219 -1.82 -1.016 c -0.227 -0.797 0.215 -1.633 0.992 -1.867 c 2.816 -0.855 5.746 -1.285 8.699 -1.285 c 5.473 0 10.848 1.496 15.547 4.332 c 0.695 0.422 0.93 1.34 0.52 2.059 c -0.273 0.477 -0.762 0.742 -1.266 0.742" fill="#2d2d2d"/><path d="m 33.16 27.527 c -0.238 0 -0.48 -0.066 -0.695 -0.207 c -3.504 -2.246 -7.551 -3.438 -11.699 -3.438 c -2.305 0 -4.578 0.363 -6.758 1.082 c -0.691 0.23 -1.434 -0.164 -1.656 -0.875 c -0.223 -0.711 0.16 -1.473 0.852 -1.703 c 2.441 -0.805 4.984 -1.211 7.563 -1.211 c 4.645 0 9.172 1.332 13.09 3.852 c 0.617 0.395 0.805 1.23 0.418 1.863 c -0.25 0.41 -0.68 0.637 -1.117 0.637" fill="#2d2d2d"/><path d="m 30.766 32.957 c -0.23 0 -0.465 -0.066 -0.668 -0.211 c -2.75 -1.961 -5.977 -2.996 -9.328 -2.996 c -1.938 0 -3.836 0.344 -5.637 1.023 c -0.609 0.227 -1.281 -0.094 -1.504 -0.719 c -0.223 -0.625 0.09 -1.313 0.699 -1.543 c 2.059 -0.777 4.227 -1.168 6.441 -1.168 c 3.832 0 7.52 1.184 10.664 3.422 c 0.531 0.379 0.664 1.129 0.293 1.676 c -0.227 0.336 -0.59 0.516 -0.961 0.516" fill="#2d2d2d"/></g></g></g></g><g><g transform="translate(0,-1004.3622)"><path d="m 1 1043.36 0 4 c 0 2.216 1.784 4 4 4 l 38 0 c 2.216 0 4 -1.784 4 -4 l 0 -4 c 0 2.216 -1.784 4 -4 4 l -38 0 c -2.216 0 -4 -1.784 -4 -4 z" opacity="0.1"/></g></g></svg>
